markup/sourceimages/icon1.svg

<svg xmlns="http://www.w3.org/2000/svg" width="73" height="45"><path fill-rule="evenodd" fill="#FF4800" d="M71.934 31.133c-1.801 0-2.643.805-3.71 1.823-1.182 1.129-2.521 2.407-5.15 2.407-2.628 0-3.967-1.278-5.149-2.406-1.066-1.019-1.909-1.824-3.71-1.824-1.8 0-2.643.805-3.709 1.823-1.182 1.129-2.521 2.407-5.149 2.407-2.629 0-3.968-1.278-5.149-2.407-1.067-1.018-1.909-1.823-3.71-1.823-1.8 0-2.643.805-3.709 1.823-1.182 1.129-2.52 2.407-5.149 2.407s-3.967-1.278-5.148-2.407c-1.067-1.018-1.909-1.823-3.709-1.823-1.801 0-2.643.805-3.71 1.823-1.181 1.129-2.52 2.407-5.149 2.407-2.628 0-3.967-1.278-5.149-2.407-1.066-1.018-1.909-1.823-3.709-1.823-.589 0-1.066-.498-1.066-1.112 0-.614.477-1.111 1.066-1.111 2.628 0 3.967 1.278 5.149 2.406 1.066 1.019 1.909 1.823 3.709 1.823 1.801 0 2.643-.804 3.71-1.823 1.181-1.128 2.52-2.406 5.149-2.406 2.628 0 3.967 1.278 5.148 2.406 1.066 1.019 1.909 1.823 3.709 1.823s2.643-.804 3.709-1.823c1.182-1.128 2.521-2.406 5.149-2.406 2.629 0 3.968 1.278 5.149 2.406 1.067 1.019 1.909 1.823 3.71 1.823 1.8 0 2.643-.804 3.709-1.823 1.182-1.128 2.521-2.406 5.149-2.406 2.629 0 3.968 1.278 5.15 2.406 1.066 1.019 1.909 1.823 3.709 1.823 1.801 0 2.644-.805 3.711-1.823 1.181-1.128 2.52-2.406 5.149-2.406.589 0 1.066.497 1.066 1.111s-.477 1.112-1.066 1.112zm0-9.636c-1.801 0-2.643.805-3.71 1.823-1.182 1.128-2.521 2.407-5.15 2.407-2.628 0-3.967-1.279-5.149-2.407-1.066-1.018-1.909-1.823-3.71-1.823-1.8 0-2.643.805-3.709 1.823-1.182 1.128-2.521 2.407-5.149 2.407-2.629 0-3.968-1.279-5.149-2.407-1.067-1.018-1.909-1.823-3.71-1.823-1.8 0-2.643.805-3.709 1.823-1.182 1.128-2.52 2.407-5.149 2.407s-3.967-1.279-5.148-2.407c-1.067-1.018-1.909-1.823-3.709-1.823-1.801 0-2.643.805-3.71 1.823-1.181 1.128-2.52 2.407-5.149 2.407-2.628 0-3.967-1.279-5.149-2.407-1.066-1.018-1.909-1.823-3.709-1.823-.589 0-1.066-.498-1.066-1.112 0-.614.477-1.112 1.066-1.112 2.628 0 3.967 1.279 5.149 2.407 1.066 1.018 1.909 1.823 3.709 1.823 1.801 0 2.643-.805 3.71-1.823 1.181-1.128 2.52-2.407 5.149-2.407 2.628 0 3.967 1.279 5.148 2.407 1.066 1.018 1.909 1.823 3.709 1.823s2.643-.805 3.709-1.823c1.182-1.128 2.521-2.407 5.149-2.407 2.629 0 3.968 1.279 5.149 2.407 1.067 1.018 1.909 1.823 3.71 1.823 1.8 0 2.643-.805 3.709-1.823 1.182-1.128 2.521-2.407 5.149-2.407 2.629 0 3.968 1.279 5.15 2.407 1.066 1.018 1.909 1.823 3.709 1.823 1.801 0 2.644-.805 3.711-1.823 1.181-1.128 2.52-2.407 5.149-2.407.589 0 1.066.498 1.066 1.112 0 .614-.477 1.112-1.066 1.112zm0-9.637c-1.801 0-2.643.805-3.71 1.824-1.182 1.128-2.521 2.406-5.15 2.406-2.628 0-3.967-1.278-5.149-2.406-1.066-1.019-1.909-1.824-3.71-1.824-1.8 0-2.643.805-3.709 1.824-1.182 1.128-2.521 2.406-5.149 2.406-2.629 0-3.968-1.278-5.149-2.406-1.067-1.019-1.909-1.824-3.71-1.824-1.8 0-2.643.805-3.709 1.824-1.182 1.128-2.52 2.406-5.149 2.406s-3.967-1.278-5.148-2.406c-1.067-1.019-1.909-1.824-3.709-1.824-1.801 0-2.643.805-3.71 1.824-1.181 1.128-2.52 2.406-5.149 2.406-2.628 0-3.967-1.278-5.149-2.406-1.066-1.019-1.909-1.824-3.709-1.824C.477 11.86 0 11.363 0 10.748c0-.614.477-1.112 1.066-1.112 2.628 0 3.967 1.279 5.149 2.407 1.066 1.019 1.909 1.823 3.709 1.823 1.801 0 2.643-.804 3.71-1.823 1.181-1.128 2.52-2.407 5.149-2.407 2.628 0 3.967 1.279 5.148 2.407 1.066 1.019 1.909 1.823 3.709 1.823s2.643-.804 3.709-1.823c1.182-1.128 2.521-2.407 5.149-2.407 2.629 0 3.968 1.279 5.149 2.407 1.067 1.019 1.909 1.823 3.71 1.823 1.8 0 2.643-.804 3.709-1.823 1.182-1.128 2.521-2.407 5.149-2.407 2.629 0 3.968 1.279 5.15 2.407 1.066 1.019 1.909 1.823 3.709 1.823 1.801 0 2.644-.804 3.711-1.823 1.181-1.128 2.52-2.407 5.149-2.407.589 0 1.066.498 1.066 1.112 0 .615-.477 1.112-1.066 1.112zm0-9.636c-1.801 0-2.643.804-3.71 1.823-1.182 1.128-2.521 2.407-5.15 2.407-2.628 0-3.967-1.279-5.149-2.407-1.066-1.019-1.909-1.823-3.71-1.823-1.8 0-2.643.804-3.709 1.823-1.182 1.128-2.521 2.407-5.149 2.407-2.629 0-3.968-1.279-5.149-2.407-1.067-1.019-1.909-1.823-3.71-1.823-1.8 0-2.643.804-3.709 1.823-1.182 1.128-2.52 2.407-5.149 2.407s-3.967-1.279-5.148-2.407c-1.067-1.019-1.909-1.823-3.709-1.823-1.801 0-2.643.804-3.71 1.823-1.181 1.128-2.52 2.407-5.149 2.407-2.628 0-3.967-1.279-5.149-2.407-1.066-1.019-1.909-1.823-3.709-1.823C.477 2.224 0 1.726 0 1.112 0 .498.477 0 1.066 0c2.628 0 3.967 1.279 5.149 2.406C7.281 3.425 8.124 4.23 9.924 4.23c1.801 0 2.643-.805 3.71-1.824C14.815 1.279 16.154 0 18.783 0c2.628 0 3.967 1.279 5.148 2.406C24.997 3.425 25.84 4.23 27.64 4.23s2.643-.805 3.709-1.824C32.531 1.279 33.87 0 36.498 0c2.629 0 3.968 1.279 5.149 2.406 1.067 1.019 1.909 1.824 3.71 1.824 1.8 0 2.643-.805 3.709-1.824C50.248 1.279 51.587 0 54.215 0c2.629 0 3.968 1.279 5.15 2.406 1.066 1.019 1.909 1.824 3.709 1.824 1.801 0 2.644-.805 3.711-1.824C67.966 1.279 69.305 0 71.934 0 72.523 0 73 .498 73 1.112c0 .614-.477 1.112-1.066 1.112zM1.066 38.546c2.628 0 3.967 1.278 5.149 2.406 1.066 1.019 1.909 1.824 3.709 1.824 1.801 0 2.643-.805 3.71-1.824 1.181-1.128 2.52-2.406 5.149-2.406 2.628 0 3.967 1.278 5.148 2.407 1.066 1.018 1.909 1.823 3.709 1.823s2.643-.805 3.709-1.824c1.182-1.128 2.521-2.406 5.149-2.406 2.629 0 3.968 1.278 5.149 2.406 1.067 1.019 1.909 1.824 3.71 1.824 1.8 0 2.643-.805 3.709-1.824 1.182-1.128 2.521-2.406 5.149-2.406 2.629 0 3.968 1.278 5.15 2.406 1.066 1.019 1.909 1.824 3.709 1.824 1.801 0 2.644-.805 3.711-1.824 1.181-1.128 2.52-2.406 5.149-2.406.589 0 1.066.498 1.066 1.112 0 .614-.477 1.112-1.066 1.112-1.801 0-2.643.804-3.71 1.823C67.042 43.721 65.703 45 63.074 45c-2.628 0-3.967-1.279-5.149-2.407-1.066-1.019-1.909-1.823-3.71-1.823-1.8 0-2.643.804-3.709 1.823C49.324 43.721 47.985 45 45.357 45c-2.629 0-3.968-1.279-5.149-2.407-1.067-1.019-1.909-1.823-3.71-1.823-1.8 0-2.643.804-3.709 1.823C31.607 43.721 30.269 45 27.64 45s-3.967-1.279-5.148-2.407c-1.067-1.019-1.909-1.823-3.709-1.823-1.801 0-2.643.804-3.71 1.823C13.892 43.721 12.553 45 9.924 45c-2.628 0-3.967-1.279-5.149-2.407-1.066-1.019-1.909-1.823-3.709-1.823C.477 40.77 0 40.272 0 39.658c0-.614.477-1.112 1.066-1.112z"/></svg>

<svg 
 xmlns="http://www.w3.org/2000/svg"
 xmlns:xlink="http://www.w3.org/1999/xlink"
 width="73px" height="45px">
<path fill-rule="evenodd"  fill="rgb(255, 72, 0)"
 d="M71.934,31.133 C70.133,31.133 69.291,31.938 68.224,32.956 C67.042,34.085 65.703,35.363 63.074,35.363 C60.446,35.363 59.107,34.085 57.925,32.957 C56.859,31.938 56.016,31.133 54.215,31.133 C52.415,31.133 51.572,31.938 50.506,32.956 C49.324,34.085 47.985,35.363 45.357,35.363 C42.728,35.363 41.389,34.085 40.208,32.956 C39.141,31.938 38.299,31.133 36.498,31.133 C34.698,31.133 33.855,31.938 32.789,32.956 C31.607,34.085 30.269,35.363 27.640,35.363 C25.011,35.363 23.673,34.085 22.492,32.956 C21.425,31.938 20.583,31.133 18.783,31.133 C16.982,31.133 16.140,31.938 15.073,32.956 C13.892,34.085 12.553,35.363 9.924,35.363 C7.296,35.363 5.957,34.085 4.775,32.956 C3.709,31.938 2.866,31.133 1.066,31.133 C0.477,31.133 0.000,30.635 0.000,30.021 C0.000,29.407 0.477,28.910 1.066,28.910 C3.694,28.910 5.033,30.188 6.215,31.316 C7.281,32.335 8.124,33.139 9.924,33.139 C11.725,33.139 12.567,32.335 13.634,31.316 C14.815,30.188 16.154,28.910 18.783,28.910 C21.411,28.910 22.750,30.188 23.931,31.316 C24.997,32.335 25.840,33.139 27.640,33.139 C29.440,33.139 30.283,32.335 31.349,31.316 C32.531,30.188 33.870,28.910 36.498,28.910 C39.127,28.910 40.466,30.188 41.647,31.316 C42.714,32.335 43.556,33.139 45.357,33.139 C47.157,33.139 48.000,32.335 49.066,31.316 C50.248,30.188 51.587,28.910 54.215,28.910 C56.844,28.910 58.183,30.188 59.365,31.316 C60.431,32.335 61.274,33.139 63.074,33.139 C64.875,33.139 65.718,32.334 66.785,31.316 C67.966,30.188 69.305,28.910 71.934,28.910 C72.523,28.910 73.000,29.407 73.000,30.021 C73.000,30.635 72.523,31.133 71.934,31.133 ZM71.934,21.497 C70.133,21.497 69.291,22.302 68.224,23.320 C67.042,24.448 65.703,25.727 63.074,25.727 C60.446,25.727 59.107,24.448 57.925,23.320 C56.859,22.302 56.016,21.497 54.215,21.497 C52.415,21.497 51.572,22.302 50.506,23.320 C49.324,24.448 47.985,25.727 45.357,25.727 C42.728,25.727 41.389,24.448 40.208,23.320 C39.141,22.302 38.299,21.497 36.498,21.497 C34.698,21.497 33.855,22.302 32.789,23.320 C31.607,24.448 30.269,25.727 27.640,25.727 C25.011,25.727 23.673,24.448 22.492,23.320 C21.425,22.302 20.583,21.497 18.783,21.497 C16.982,21.497 16.140,22.302 15.073,23.320 C13.892,24.448 12.553,25.727 9.924,25.727 C7.296,25.727 5.957,24.448 4.775,23.320 C3.709,22.302 2.866,21.497 1.066,21.497 C0.477,21.497 0.000,20.999 0.000,20.385 C0.000,19.771 0.477,19.273 1.066,19.273 C3.694,19.273 5.033,20.552 6.215,21.680 C7.281,22.698 8.124,23.503 9.924,23.503 C11.725,23.503 12.567,22.698 13.634,21.680 C14.815,20.552 16.154,19.273 18.783,19.273 C21.411,19.273 22.750,20.552 23.931,21.680 C24.997,22.698 25.840,23.503 27.640,23.503 C29.440,23.503 30.283,22.698 31.349,21.680 C32.531,20.552 33.870,19.273 36.498,19.273 C39.127,19.273 40.466,20.552 41.647,21.680 C42.714,22.698 43.556,23.503 45.357,23.503 C47.157,23.503 48.000,22.698 49.066,21.680 C50.248,20.552 51.587,19.273 54.215,19.273 C56.844,19.273 58.183,20.552 59.365,21.680 C60.431,22.698 61.274,23.503 63.074,23.503 C64.875,23.503 65.718,22.698 66.785,21.680 C67.966,20.552 69.305,19.273 71.934,19.273 C72.523,19.273 73.000,19.771 73.000,20.385 C73.000,20.999 72.523,21.497 71.934,21.497 ZM71.934,11.860 C70.133,11.860 69.291,12.665 68.224,13.684 C67.042,14.812 65.703,16.090 63.074,16.090 C60.446,16.090 59.107,14.812 57.925,13.684 C56.859,12.665 56.016,11.860 54.215,11.860 C52.415,11.860 51.572,12.665 50.506,13.684 C49.324,14.812 47.985,16.090 45.357,16.090 C42.728,16.090 41.389,14.812 40.208,13.684 C39.141,12.665 38.299,11.860 36.498,11.860 C34.698,11.860 33.855,12.665 32.789,13.684 C31.607,14.812 30.269,16.090 27.640,16.090 C25.011,16.090 23.673,14.812 22.492,13.684 C21.425,12.665 20.583,11.860 18.783,11.860 C16.982,11.860 16.140,12.665 15.073,13.684 C13.892,14.812 12.553,16.090 9.924,16.090 C7.296,16.090 5.957,14.812 4.775,13.684 C3.709,12.665 2.866,11.860 1.066,11.860 C0.477,11.860 0.000,11.363 0.000,10.748 C0.000,10.134 0.477,9.636 1.066,9.636 C3.694,9.636 5.033,10.915 6.215,12.043 C7.281,13.062 8.124,13.866 9.924,13.866 C11.725,13.866 12.567,13.062 13.634,12.043 C14.815,10.915 16.154,9.636 18.783,9.636 C21.411,9.636 22.750,10.915 23.931,12.043 C24.997,13.062 25.840,13.866 27.640,13.866 C29.440,13.866 30.283,13.062 31.349,12.043 C32.531,10.915 33.870,9.636 36.498,9.636 C39.127,9.636 40.466,10.915 41.647,12.043 C42.714,13.062 43.556,13.866 45.357,13.866 C47.157,13.866 48.000,13.062 49.066,12.043 C50.248,10.915 51.587,9.636 54.215,9.636 C56.844,9.636 58.183,10.915 59.365,12.043 C60.431,13.062 61.274,13.866 63.074,13.866 C64.875,13.866 65.718,13.062 66.785,12.043 C67.966,10.915 69.305,9.636 71.934,9.636 C72.523,9.636 73.000,10.134 73.000,10.748 C73.000,11.363 72.523,11.860 71.934,11.860 ZM71.934,2.224 C70.133,2.224 69.291,3.028 68.224,4.047 C67.042,5.175 65.703,6.454 63.074,6.454 C60.446,6.454 59.107,5.175 57.925,4.047 C56.859,3.028 56.016,2.224 54.215,2.224 C52.415,2.224 51.572,3.028 50.506,4.047 C49.324,5.175 47.985,6.454 45.357,6.454 C42.728,6.454 41.389,5.175 40.208,4.047 C39.141,3.028 38.299,2.224 36.498,2.224 C34.698,2.224 33.855,3.028 32.789,4.047 C31.607,5.175 30.269,6.454 27.640,6.454 C25.011,6.454 23.673,5.175 22.492,4.047 C21.425,3.028 20.583,2.224 18.783,2.224 C16.982,2.224 16.140,3.028 15.073,4.047 C13.892,5.175 12.553,6.454 9.924,6.454 C7.296,6.454 5.957,5.175 4.775,4.047 C3.709,3.028 2.866,2.224 1.066,2.224 C0.477,2.224 0.000,1.726 0.000,1.112 C0.000,0.498 0.477,-0.000 1.066,-0.000 C3.694,-0.000 5.033,1.279 6.215,2.406 C7.281,3.425 8.124,4.230 9.924,4.230 C11.725,4.230 12.567,3.425 13.634,2.406 C14.815,1.279 16.154,-0.000 18.783,-0.000 C21.411,-0.000 22.750,1.279 23.931,2.406 C24.997,3.425 25.840,4.230 27.640,4.230 C29.440,4.230 30.283,3.425 31.349,2.406 C32.531,1.279 33.870,-0.000 36.498,-0.000 C39.127,-0.000 40.466,1.279 41.647,2.406 C42.714,3.425 43.556,4.230 45.357,4.230 C47.157,4.230 48.000,3.425 49.066,2.406 C50.248,1.279 51.587,-0.000 54.215,-0.000 C56.844,-0.000 58.183,1.279 59.365,2.406 C60.431,3.425 61.274,4.230 63.074,4.230 C64.875,4.230 65.718,3.425 66.785,2.406 C67.966,1.279 69.305,-0.000 71.934,-0.000 C72.523,-0.000 73.000,0.498 73.000,1.112 C73.000,1.726 72.523,2.224 71.934,2.224 ZM1.066,38.546 C3.694,38.546 5.033,39.824 6.215,40.952 C7.281,41.971 8.124,42.776 9.924,42.776 C11.725,42.776 12.567,41.971 13.634,40.952 C14.815,39.824 16.154,38.546 18.783,38.546 C21.411,38.546 22.750,39.824 23.931,40.953 C24.997,41.971 25.840,42.776 27.640,42.776 C29.440,42.776 30.283,41.971 31.349,40.952 C32.531,39.824 33.870,38.546 36.498,38.546 C39.127,38.546 40.466,39.824 41.647,40.952 C42.714,41.971 43.556,42.776 45.357,42.776 C47.157,42.776 48.000,41.971 49.066,40.952 C50.248,39.824 51.587,38.546 54.215,38.546 C56.844,38.546 58.183,39.824 59.365,40.952 C60.431,41.971 61.274,42.776 63.074,42.776 C64.875,42.776 65.718,41.971 66.785,40.952 C67.966,39.824 69.305,38.546 71.934,38.546 C72.523,38.546 73.000,39.044 73.000,39.658 C73.000,40.272 72.523,40.770 71.934,40.770 C70.133,40.770 69.291,41.574 68.224,42.593 C67.042,43.721 65.703,45.000 63.074,45.000 C60.446,45.000 59.107,43.721 57.925,42.593 C56.859,41.574 56.016,40.770 54.215,40.770 C52.415,40.770 51.572,41.574 50.506,42.593 C49.324,43.721 47.985,45.000 45.357,45.000 C42.728,45.000 41.389,43.721 40.208,42.593 C39.141,41.574 38.299,40.770 36.498,40.770 C34.698,40.770 33.855,41.574 32.789,42.593 C31.607,43.721 30.269,45.000 27.640,45.000 C25.011,45.000 23.673,43.721 22.492,42.593 C21.425,41.574 20.583,40.770 18.783,40.770 C16.982,40.770 16.140,41.574 15.073,42.593 C13.892,43.721 12.553,45.000 9.924,45.000 C7.296,45.000 5.957,43.721 4.775,42.593 C3.709,41.574 2.866,40.770 1.066,40.770 C0.477,40.770 0.000,40.272 0.000,39.658 C0.000,39.044 0.477,38.546 1.066,38.546 Z"/>
</svg>
